packages/core/src/svgs/brock.svg

<svg width="24" height="24" viewBox="0 0 24 24" fill="none" xmlns="http://www.w3.org/2000/svg">
<g clip-path="url(#clip0_31_7363)">
<path d="M0 0H24V24H0V0Z" fill="url(#paint0_linear_31_7363)"/>
<path d="M5.6401 7.24309L11.2672 4.74023C11.3178 4.71762 11.375 4.71428 11.4279 4.73086C11.4807 4.74744 11.5257 4.78278 11.5544 4.83023C11.5699 4.87861 11.5757 4.92959 11.5715 4.98023V6.79737C11.5715 6.80594 11.563 6.8188 11.5544 6.82309C11.5465 6.83116 11.5357 6.83578 11.5244 6.83594L5.66581 7.43166C5.65189 7.43247 5.63803 7.42926 5.62587 7.42242C5.61372 7.41559 5.60378 7.40541 5.59724 7.39309C5.55438 7.3288 5.56724 7.27737 5.6401 7.24309ZM12.7201 4.74023L18.3772 7.24737C18.433 7.27737 18.4458 7.32023 18.403 7.3888C18.3962 7.39966 18.3867 7.40854 18.3754 7.41456C18.3641 7.42058 18.3515 7.42352 18.3387 7.42309L12.4672 6.83166C12.4587 6.83166 12.4458 6.83166 12.4415 6.82309C12.4373 6.81933 12.434 6.8147 12.4318 6.80951C12.4295 6.80433 12.4285 6.79872 12.4287 6.79309V4.9288C12.4287 4.85594 12.4501 4.81737 12.4501 4.81309C12.5187 4.71452 12.6087 4.6888 12.7201 4.74023Z" fill="white"/>
<path d="M8.06999 13.0501C7.1357 11.653 6.19713 10.2601 5.25428 8.86727C5.06999 8.59727 5.09999 8.39156 5.46428 8.3787L11.1986 7.77441C11.2099 7.77441 11.2208 7.77893 11.2289 7.78697C11.2369 7.795 11.2414 7.8059 11.2414 7.81727C11.2426 7.82293 11.2426 7.82876 11.2414 7.83441L8.19856 13.1316C8.19505 13.1377 8.19008 13.1428 8.1841 13.1466C8.17812 13.1503 8.17131 13.1525 8.16428 13.153C8.15762 13.153 8.15106 13.1514 8.14511 13.1485C8.13916 13.1455 8.13398 13.1412 8.12999 13.1358C8.10861 13.1083 8.08859 13.0797 8.06999 13.0501ZM18.6343 8.38299C18.6948 8.39444 18.7489 8.42796 18.7861 8.47706C18.8234 8.52616 18.841 8.58732 18.8357 8.6487C18.8314 8.69156 18.8143 8.73441 18.7928 8.76441L15.8228 13.1358C15.8215 13.139 15.8195 13.1418 15.817 13.1441C15.8145 13.1464 15.8116 13.1482 15.8084 13.1494C15.8052 13.1506 15.8018 13.1512 15.7984 13.1511C15.795 13.1509 15.7917 13.1501 15.7886 13.1487L15.78 13.1358L12.7371 7.83441C12.7114 7.79156 12.7243 7.77441 12.7671 7.77441L18.6343 8.38299Z" fill="#A2A3A5"/>
<path d="M5.14283 15.0298V10.3455C5.14317 10.3303 5.14716 10.3155 5.15446 10.3022C5.16177 10.2889 5.17217 10.2776 5.18479 10.2692C5.19741 10.2607 5.21187 10.2555 5.22695 10.2539C5.24202 10.2522 5.25727 10.2543 5.2714 10.2598C5.29283 10.2641 5.31426 10.2769 5.32283 10.2941L7.41426 13.7141C7.42128 13.7247 7.42609 13.7366 7.42839 13.7491C7.43068 13.7616 7.43042 13.7745 7.42762 13.7869C7.42482 13.7993 7.41953 13.811 7.41208 13.8214C7.40462 13.8317 7.39516 13.8404 7.38426 13.8469L5.28854 15.1112C5.27383 15.1209 5.25672 15.1262 5.23914 15.1266C5.22156 15.127 5.20422 15.1225 5.18906 15.1136C5.1739 15.1047 5.16154 15.0917 5.15337 15.0762C5.1452 15.0606 5.14155 15.043 5.14283 15.0255V15.0298ZM16.5471 13.7398L18.6557 10.2855C18.6627 10.2729 18.6731 10.2625 18.6857 10.2555L18.7457 10.2298C18.7571 10.2241 18.7697 10.2213 18.7825 10.2217C18.7952 10.2221 18.8076 10.2256 18.8187 10.232C18.8297 10.2384 18.839 10.2474 18.8457 10.2582C18.8524 10.269 18.8563 10.2814 18.8571 10.2941V15.0598C18.8571 15.0802 18.849 15.0999 18.8345 15.1143C18.8201 15.1288 18.8004 15.1369 18.78 15.1369L18.7371 15.1241L16.5728 13.8384C16.5565 13.8288 16.5443 13.8135 16.5385 13.7955C16.5356 13.7855 16.5348 13.7749 16.5363 13.7646C16.5378 13.7542 16.5415 13.7443 16.5471 13.7355V13.7398Z" fill="white"/>
<path d="M12.57 18.7202C12.2614 19.2688 11.9057 19.5902 11.4985 18.8616C10.6318 17.3108 9.76606 15.7594 8.90138 14.2074C8.90115 14.1963 8.90379 14.1853 8.90905 14.1755C8.91431 14.1658 8.922 14.1575 8.93138 14.1516C8.94053 14.1464 8.95083 14.1434 8.96138 14.1431H15.0257C15.0344 14.1434 15.0429 14.1459 15.0504 14.1504C15.0579 14.1549 15.0642 14.1612 15.0685 14.1688C15.0734 14.1773 15.076 14.1869 15.076 14.1966C15.076 14.2064 15.0734 14.216 15.0685 14.2245L12.57 18.7202Z" fill="#A2A3A5"/>
<path d="M8.07423 14.7002L10.3071 18.7288C10.3185 18.7498 10.3245 18.7732 10.3247 18.797C10.3249 18.8209 10.3193 18.8444 10.3083 18.8655C10.2973 18.8867 10.2813 18.9048 10.2616 18.9184C10.242 18.9319 10.2193 18.9404 10.1957 18.9431L10.0328 18.9559C9.99985 18.9597 9.96659 18.9522 9.93851 18.9345L5.68708 16.1617C5.65702 16.1408 5.63592 16.1093 5.62798 16.0736C5.62004 16.0379 5.62584 16.0005 5.64423 15.9688C5.65708 15.9474 5.67423 15.9259 5.69566 15.9174L7.8728 14.6445C7.88936 14.6345 7.90774 14.6279 7.92689 14.625C7.94603 14.6222 7.96555 14.6232 7.9843 14.628C8.00305 14.6328 8.02066 14.6412 8.0361 14.6529C8.05154 14.6646 8.0645 14.6792 8.07423 14.6959V14.7002ZM13.7828 18.5788C14.5114 17.2588 15.2314 15.9302 15.9814 14.6274C15.984 14.6216 15.9879 14.6164 15.9927 14.6123C15.9976 14.6081 16.0033 14.6051 16.0094 14.6035C16.0156 14.6019 16.022 14.6016 16.0283 14.6028C16.0346 14.6039 16.0405 14.6065 16.0457 14.6102C16.8084 15.0526 17.5685 15.4998 18.3257 15.9517C18.3685 15.9774 18.3942 16.0031 18.4028 16.0245C18.4114 16.0459 18.4114 16.0674 18.4028 16.0931C18.3983 16.1117 18.3878 16.1283 18.3728 16.1402L14.1085 18.9259C13.8214 19.1188 13.6371 18.8359 13.7828 18.5788Z" fill="white"/>
</g>
<defs>
<linearGradient id="paint0_linear_31_7363" x1="4.46571" y1="4.16143" x2="29.2071" y2="32.58" gradientUnits="userSpaceOnUse">
<stop stop-color="#1A1E21"/>
<stop offset="1" stop-color="#06060A"/>
</linearGradient>
<clipPath id="clip0_31_7363">
<rect width="24" height="24" fill="white"/>
</clipPath>
</defs>
</svg>

<svg xmlns="http://www.w3.org/2000/svg" width="24" height="24" fill="none" viewBox="0 0 24 24"><g clip-path="url(#a)"><path fill="url(#b)" d="M0 0h24v24H0z"/><path fill="#fff" d="m5.64 7.243 5.627-2.503a.23.23 0 0 1 .287.09q.024.074.018.15v1.817c0 .009-.009.022-.018.026a.04.04 0 0 1-.03.013l-5.858.596a.07.07 0 0 1-.069-.039q-.065-.098.043-.15m7.08-2.503 5.657 2.507c.056.03.069.073.026.142a.07.07 0 0 1-.064.034l-5.872-.591c-.008 0-.021 0-.026-.009a.04.04 0 0 1-.012-.03V4.93c0-.073.021-.112.021-.116q.104-.148.27-.073"/><path fill="#A2A3A5" d="M8.07 13.05a894 894 0 0 0-2.816-4.183c-.184-.27-.154-.475.21-.488l5.735-.605a.043.043 0 0 1 .042.043v.017L8.2 13.132a.04.04 0 0 1-.035.021.043.043 0 0 1-.034-.017 1 1 0 0 1-.06-.086m10.564-4.667a.25.25 0 0 1 .202.266.25.25 0 0 1-.043.115l-2.97 4.372-.006.008a.03.03 0 0 1-.019.007l-.01-.002-.008-.013-3.043-5.302c-.026-.042-.013-.06.03-.06z"/><path fill="#fff" d="M5.143 15.03v-4.684a.094.094 0 0 1 .128-.086c.022.004.043.017.052.034l2.091 3.42a.094.094 0 0 1-.03.133L5.29 15.11a.09.09 0 0 1-.1.003.09.09 0 0 1-.046-.089zm11.404-1.29 2.109-3.454a.1.1 0 0 1 .03-.03l.06-.026a.077.077 0 0 1 .111.064v4.766a.077.077 0 0 1-.077.077l-.043-.013-2.164-1.286a.08.08 0 0 1-.035-.042.07.07 0 0 1 .01-.06z"/><path fill="#A2A3A5" d="M12.57 18.72c-.309.549-.664.87-1.072.142l-2.597-4.655a.07.07 0 0 1 .03-.055.1.1 0 0 1 .03-.009h6.065a.05.05 0 0 1 .043.026.06.06 0 0 1 0 .056z"/><path fill="#fff" d="m8.074 14.7 2.233 4.029a.145.145 0 0 1-.111.214l-.163.013a.14.14 0 0 1-.094-.021l-4.252-2.773a.146.146 0 0 1-.043-.193c.013-.022.03-.043.052-.052l2.177-1.272a.15.15 0 0 1 .163.008.2.2 0 0 1 .038.043zm5.709 3.879c.728-1.32 1.448-2.649 2.198-3.952a.04.04 0 0 1 .028-.024.04.04 0 0 1 .037.007q1.144.664 2.28 1.342.064.039.077.072a.1.1 0 0 1 0 .07.1.1 0 0 1-.03.046l-4.265 2.786c-.287.193-.47-.09-.325-.347"/></g><defs><linearGradient id="b" x1="4.466" x2="29.207" y1="4.161" y2="32.58" gradientUnits="userSpaceOnUse"><stop stop-color="#1A1E21"/><stop offset="1" stop-color="#06060A"/></linearGradient><clipPath id="a"><path fill="#fff" d="M0 0h24v24H0z"/></clipPath></defs></svg>
